!!!OTL: Katzenlied (269), S.574
!!!id: T0458
**kern
*clefG2
*k[b-]
*F:
{16f
=1
16f
8cc
8cc
8a
8f
=2
8cc
16cc
16cc
4a}
=3
{8b-
8b-
8a
8f
=4
8g
8g
4f}
=5
{4f
8a
8f
=6
4cc}
4r
=7
{8cc
8cc
8a
8f
=8
8cc
16cc
16cc
4a}
=9
{8b-
8b-
8a
8f
=10
8g
8g
4f}
=11
{4f
4a
=12
4cc}
4r
=13
{8cc
8cc
8b-
8e
=14
4f}
4r
==
*-
!!!minrhy: 16
!!!meters: 2/4 ]  ZZ[7
!!!cut: Katzenlied (269), S.574
!!!reg: Luxemburg
!!!trd: Singendes Volk, Esch-Alzette, 1937 posth.
!!!rhy1:   X_X_X_X_  X_XXX__
!!!rhy2: X_X_X_X_  X_X_X__
!!!key: T0458  16  F 2/4 ]  ZZ[7
!!!mod: SECHSTONSKALA DUR ?]  AMBITUS[6b
!!!kad: 3153151
!!!akz: 55_42_15_55_42_15_51_
!!!fot: 'a__b__c__a__b__cv_d__
!!!for: 'a__b__c__a__b__d__aw_
!!!fok: '\__\__/__\__\__/__\__
!! PHRAS[VOLLTAKTIG]
!!!fkt: ???
!!!bem: Rammeldingen, J.P. Gloden, 25.2.1934
!! THILL; Mathias
!! PR[37] 2K[8] 2G[11] 3K[0] 3G[3] 4A[5] 4Ü[0] 5A[0] 6K[0] 6G[0]
!! 7K[0] 7G[0] 8A[0] MEHR[0] SI[26] ABS[38] SR[18] SP[8]
!! ST[9] 2k[8] 2g[21] 3k[5] 3g[0] 4d[0] 4ü[0] 5d[3] 6k[0] 6g[0]
!! 7k[0] 7g[0] 8d[0] mehr[0] si[37] dm[-11] sr[29] sp[8]
!! 1F[25] 2F[73] 3F[3] 4F[0] LF[0] 2P[0] 3P[0] 4P[0] TRI[0] DF[3] AB[40]
!! TF[0] U3K[0] U3[0] U4[0] U4Ü[0] U5[0] U6K[0] U6[0] U7K[0] U7[0]
!! N1[26] N2K[0] N2[21] N3K[0] N3[23] N4[15] N4Ü[0] N5[13] N6K[0] N6[3]
!!!n7k: 0] N7[0] O1[0] O2K[0] O2[0] O3K[0] O3[0] HÖ[0
